X:595
T: Primrose Lass
T: Cail\'in na Samharc\'in\'i
S: B.Breathnach: "Ceol Rince na hEireann" II/150ii
Z: B.Black
L: 1/8
M: 4/4
R: reel
K: G
DEGB cdcA|BcBG (3ABA GE|DEGA B2 eB|dBAc BG G2|
DEGB cBcA|(3BAB (3GAG A2 GE|DEGA BdeB|dBAc BG G2||
Bd d2 Bded|BddB AGEG|Bd d2 Bdgd|dBAc BG G2|
Bd d2 Bded|BddB AGEG|(3Bcd ef gfge|dBAc BGGE||
